X: 7685
T: Coleraine, The
R: jig
M: 6/8
K: Aminor
|:EAA ABc|~B2e e2d|cBA ABc|B^GE E2D|
E2A ABc|BAB e2d|cBA BA^G|1 A3 A2D:|2 A3 A2B||
|:c3 cdc|Bdg g2^g|aed cBA|^GBG E^FG|
A^GA BAB|cde e2d|cBA E^F^G|1 A3 A2B:|2 A3 A2D||

